src/assets/Hapag.svg

<?xml version="1.0" encoding="UTF-8" standalone="no"?>
<svg width="130px" height="20px" viewBox="0 0 130 20" version="1.1" xmlns="http://www.w3.org/2000/svg" xmlns:xlink="http://www.w3.org/1999/xlink" xmlns:sketch="http://www.bohemiancoding.com/sketch/ns">
    <!-- Generator: Sketch 3.3.2 (12043) - http://www.bohemiancoding.com/sketch -->
    <title>Hapag-Lloyd Logo</title>
    <desc>Created with Sketch.</desc>
    <defs/>
    <g id="Homepage-Initial" stroke="none" stroke-width="1" fill="none" fill-rule="evenodd" sketch:type="MSPage">
        <g id="Smartphone/HAL0200-Homepage/HAL0200_Homepage-Initial_Smartphone" sketch:type="MSArtboardGroup" transform="translate(-95.000000, -17.000000)">
            <g id="Navigation" sketch:type="MSLayerGroup">
                <g id="Hapag-Lloyd-Logo" transform="translate(95.000000, 17.000000)" sketch:type="MSShapeGroup">
                    <path d="M7.86133803,0 L16.5576056,0 L11.1397183,9.04323944 L12.5623944,9.04323944 L17.9940141,0 L26.7433803,0 L21.3259507,9.04323944 L27.3924648,9.04323944 L24.9412324,13.0544718 L18.880669,13.0517254 L23.5982042,19.5448592 L14.8602817,19.5448592 L10.1496127,13.0544718 L8.65369718,13.0544718 L13.3671127,19.5448592 L4.73309859,19.5448592 L0,13.0544718 L7.86133803,0" id="Fill-1" fill="#111465"/>
                    <path d="M37.8364085,16.4962676 L40.5206338,16.4962676 L40.5206338,11.2303521 L45.462007,11.2303521 L45.462007,16.4962676 L48.1462324,16.4962676 L48.1462324,4.28862676 L45.462007,4.28862676 L45.462007,8.97366197 L40.5206338,8.97366197 L40.5206338,4.28862676 L37.8364085,4.28862676 L37.8364085,16.4962676" id="Fill-2" fill="#000000"/>
                    <path d="M54.6627113,13.0769014 C54.6627113,13.6069718 54.594507,15.1115845 52.6966901,15.1115845 C51.9102817,15.1115845 51.2094718,14.8891197 51.2094718,13.9827817 C51.2094718,13.093838 51.8933451,12.8375 52.6454225,12.6836972 C53.3975,12.546831 54.2525704,12.5294366 54.6627113,12.1705634 L54.6627113,13.0769014 L54.6627113,13.0769014 Z M51.4827465,10.3752817 C51.5683451,9.4181338 52.1666197,9.0418662 53.0898944,9.0418662 C53.9449648,9.0418662 54.6627113,9.19566901 54.6627113,10.2388732 C54.6627113,11.2303521 53.2780282,11.1790845 51.7908099,11.4010915 C50.2861972,11.6066197 48.7815845,12.0854225 48.7815845,14.0853169 C48.7815845,15.897993 50.115,16.735669 51.7908099,16.735669 C52.8678873,16.735669 53.9962324,16.445 54.7657042,15.6411972 C54.7826408,15.9318662 54.8508451,16.2225352 54.9364437,16.4962676 L57.398662,16.4962676 C57.1761972,16.1373944 57.0905986,15.3335915 57.0905986,14.5302465 L57.0905986,9.93080986 C57.0905986,7.81098592 54.9707746,7.41778169 53.2098239,7.41778169 C51.2264085,7.41778169 49.1917254,8.10165493 49.0548592,10.3752817 L51.4827465,10.3752817 L51.4827465,10.3752817 Z" id="Fill-3" fill="#000000"/>
                    <path d="M57.8797535,19.6080282 L60.3071831,19.6080282 L60.3071831,15.4022535 L60.3415141,15.4022535 C60.9228521,16.2738028 61.9317254,16.735669 62.9914085,16.735669 C65.5730986,16.735669 66.8726408,14.5302465 66.8726408,12.1705634 C66.8726408,9.65753521 65.6248239,7.41778169 62.855,7.41778169 C61.7605282,7.41778169 60.8029225,7.84485915 60.2220423,8.78552817 L60.1877113,8.78552817 L60.1877113,7.6571831 L57.8797535,7.6571831 L57.8797535,19.6080282 L57.8797535,19.6080282 Z M62.3418662,14.9060563 C60.7690493,14.9060563 60.2220423,13.5383099 60.2220423,12.1023592 C60.2220423,10.6659507 60.7347183,9.24693662 62.3249296,9.24693662 C63.8808099,9.24693662 64.4447535,10.7002817 64.4447535,12.1023592 C64.4447535,13.5383099 63.9320775,14.9060563 62.3418662,14.9060563 L62.3418662,14.9060563 Z" id="Fill-4" fill="#000000"/>
                    <path d="M73.0801408,13.0769014 C73.0801408,13.6069718 73.0119366,15.1115845 71.1141197,15.1115845 C70.3277113,15.1115845 69.6264437,14.8891197 69.6264437,13.9827817 C69.6264437,13.093838 70.3103169,12.8375 71.0628521,12.6836972 C71.8149296,12.546831 72.67,12.5294366 73.0801408,12.1705634 L73.0801408,13.0769014 L73.0801408,13.0769014 Z M69.9001761,10.3752817 C69.9857746,9.4181338 70.5840493,9.0418662 71.5073239,9.0418662 C72.3623944,9.0418662 73.0801408,9.19566901 73.0801408,10.2388732 C73.0801408,11.2303521 71.6954577,11.1790845 70.2077817,11.4010915 C68.703169,11.6066197 67.1990141,12.0854225 67.1990141,14.0853169 C67.1990141,15.897993 68.5324296,16.735669 70.2077817,16.735669 C71.2848592,16.735669 72.413662,16.445 73.1826761,15.6411972 C73.2000704,15.9318662 73.2682746,16.2225352 73.3538732,16.4962676 L75.8156338,16.4962676 C75.5936268,16.1373944 75.5080282,15.3335915 75.5080282,14.5302465 L75.5080282,9.93080986 C75.5080282,7.81098592 73.3877465,7.41778169 71.6267958,7.41778169 C69.643838,7.41778169 67.6091549,8.10165493 67.4722887,10.3752817 L69.9001761,10.3752817 L69.9001761,10.3752817 Z" id="Fill-5" fill="#000000"/>
                    <path d="M85.1358099,7.6571831 L82.8278521,7.6571831 L82.8278521,8.83679577 L82.7935211,8.83679577 C82.2121831,7.81098592 81.3232394,7.41778169 80.1605634,7.41778169 C77.6814085,7.41778169 76.3649296,9.50327465 76.3649296,11.7947535 C76.3649296,14.2221831 77.4932746,16.2399296 80.1436268,16.2399296 C81.2037676,16.2399296 82.2634507,15.7954577 82.7935211,14.8721831 L82.8278521,14.8721831 L82.8278521,16.0344014 C82.8447887,17.2996127 82.2295775,18.2228873 80.8787676,18.2228873 C80.0236972,18.2228873 79.2885563,17.9152817 79.0665493,17.0094014 L76.6555986,17.0094014 C76.7755282,19.0266901 78.8102113,19.8474296 80.5537676,19.8474296 C84.6231338,19.8474296 85.1358099,17.3852113 85.1358099,15.9318662 L85.1358099,7.6571831 L85.1358099,7.6571831 Z M80.758838,14.4103169 C79.2716197,14.4103169 78.7928169,13.0256338 78.7928169,11.7604225 C78.7928169,10.4439437 79.3910915,9.24693662 80.758838,9.24693662 C82.3321127,9.24693662 82.8278521,10.5295423 82.8278521,11.965493 C82.8278521,13.2307042 82.1439789,14.4103169 80.758838,14.4103169 L80.758838,14.4103169 Z" id="Fill-6" fill="#000000"/>
                    <path d="M85.8041197,12.8713732 L90.9505634,12.8713732 L90.9505634,10.7854225 L85.8041197,10.7854225 L85.8041197,12.8713732 Z" id="Fill-7" fill="#000000"/>
                    <path d="M91.6014789,16.4962676 L100.235493,16.4962676 L100.235493,14.2395775 L94.2857042,14.2395775 L94.2857042,4.28862676 L91.6014789,4.28862676 L91.6014789,16.4962676" id="Fill-8" fill="#000000"/>
                    <path d="M100.799894,16.4962676 L103.227782,16.4962676 L103.227782,4.28908451 L100.799894,4.28908451 L100.799894,16.4962676 Z" id="Fill-9" fill="#000000"/>
                    <path d="M103.774331,12.0854225 C103.774331,14.8891197 105.569613,16.735669 108.339437,16.735669 C111.126197,16.735669 112.921479,14.8891197 112.921479,12.0854225 C112.921479,9.26433099 111.126197,7.41778169 108.339437,7.41778169 C105.569613,7.41778169 103.774331,9.26433099 103.774331,12.0854225 L103.774331,12.0854225 Z M106.202218,12.0854225 C106.202218,10.6659507 106.697958,9.24693662 108.339437,9.24693662 C109.997852,9.24693662 110.493592,10.6659507 110.493592,12.0854225 C110.493592,13.4870423 109.997852,14.9060563 108.339437,14.9060563 C106.697958,14.9060563 106.202218,13.4870423 106.202218,12.0854225 L106.202218,12.0854225 Z" id="Fill-10" fill="#000000"/>
                    <path d="M121.454331,7.6571831 L118.941303,7.6571831 L117.009155,13.709507 L116.974824,13.709507 L114.974472,7.6571831 L112.375845,7.6571831 L115.487606,15.9492606 C115.76088,16.6500704 115.487606,17.5220775 114.64993,17.6076761 C114.171127,17.6246127 113.692324,17.5564085 113.230458,17.5220775 L113.230458,19.5224296 C113.726655,19.5736972 114.222394,19.6080282 114.718134,19.6080282 C116.393486,19.6080282 117.23162,19.0266901 117.761232,17.6076761 L121.454331,7.6571831" id="Fill-11" fill="#000000"/>
                    <path d="M127.488803,16.4962676 L129.796761,16.4962676 L129.796761,4.28862676 L127.368873,4.28862676 L127.368873,8.73426056 L127.335,8.73426056 L127.351937,8.73426056 C126.787535,7.86225352 125.761725,7.41778169 124.718979,7.41778169 C122.120352,7.41778169 120.803415,9.62320423 120.803415,11.9998239 C120.803415,14.4446479 122.102958,16.735669 124.770246,16.735669 C125.898592,16.735669 126.890528,16.3255282 127.454472,15.3679225 L127.488803,15.3679225 L127.488803,16.4962676 L127.488803,16.4962676 Z M127.454472,12.0510915 C127.454472,13.5044366 126.975669,14.9060563 125.368521,14.9060563 C123.863908,14.9060563 123.231303,13.4527113 123.231303,12.0680282 C123.231303,10.6146831 123.778768,9.24693662 125.368521,9.24693662 C126.941796,9.24693662 127.454472,10.6146831 127.454472,12.0510915 L127.454472,12.0510915 Z" id="Fill-12" fill="#000000"/>
                </g>
            </g>
        </g>
    </g>
</svg>

<svg xmlns="http://www.w3.org/2000/svg" width="130" height="20"><g fill="none" fill-rule="evenodd"><path fill="#111465" d="M7.861 0h8.697L11.14 9.043h1.422L17.994 0h8.75l-5.418 9.043h6.066l-2.45 4.011-6.061-.002 4.717 6.493H14.86l-4.71-6.49H8.654l4.713 6.49H4.733L0 13.055z"/><path fill="#000" d="M37.836 16.496h2.685V11.23h4.941v5.266h2.684V4.29h-2.684v4.685h-4.941V4.289h-2.685zM54.663 13.077c0 .53-.068 2.035-1.966 2.035-.787 0-1.488-.223-1.488-1.13 0-.888.684-1.144 1.436-1.298.752-.137 1.608-.155 2.018-.513zm-3.18-2.702c.085-.957.684-1.333 1.607-1.333.855 0 1.573.154 1.573 1.197 0 .991-1.385.94-2.872 1.162-1.505.206-3.01.684-3.01 2.684 0 1.813 1.334 2.65 3.01 2.65 1.077 0 2.205-.29 2.975-1.094a3.6 3.6 0 0 0 .17.855H57.4c-.223-.359-.308-1.162-.308-1.966v-4.6c0-2.119-2.12-2.512-3.881-2.512-1.984 0-4.018.684-4.155 2.957zM57.88 19.608h2.427v-4.206h.035c.58.872 1.59 1.334 2.65 1.334 2.581 0 3.88-2.206 3.88-4.565 0-2.513-1.247-4.753-4.017-4.753-1.094 0-2.052.427-2.633 1.368h-.034V7.657H57.88zm4.462-4.702c-1.573 0-2.12-1.368-2.12-2.804s.513-2.855 2.103-2.855c1.556 0 2.12 1.453 2.12 2.855 0 1.436-.513 2.804-2.103 2.804M73.08 13.077c0 .53-.068 2.035-1.966 2.035-.786 0-1.488-.223-1.488-1.13 0-.888.684-1.144 1.437-1.298.752-.137 1.607-.155 2.017-.513zm-3.18-2.702c.086-.957.684-1.333 1.607-1.333.855 0 1.573.154 1.573 1.197 0 .991-1.385.94-2.872 1.162-1.505.206-3.009.684-3.009 2.684 0 1.813 1.333 2.65 3.009 2.65 1.077 0 2.206-.29 2.975-1.094.017.29.085.582.17.855h2.463c-.222-.359-.308-1.162-.308-1.966v-4.6c0-2.119-2.12-2.512-3.881-2.512-1.983 0-4.018.684-4.155 2.957zM85.136 7.657h-2.308v1.18h-.034c-.582-1.026-1.47-1.42-2.633-1.42-2.48 0-3.796 2.086-3.796 4.378 0 2.427 1.128 4.445 3.779 4.445 1.06 0 2.12-.445 2.65-1.368h.034v1.162c.017 1.266-.598 2.189-1.95 2.189-.854 0-1.59-.308-1.811-1.214h-2.411c.12 2.018 2.154 2.838 3.898 2.838 4.07 0 4.582-2.462 4.582-3.915zm-4.377 6.753c-1.487 0-1.966-1.384-1.966-2.65 0-1.316.598-2.513 1.966-2.513 1.573 0 2.069 1.283 2.069 2.718 0 1.266-.684 2.445-2.07 2.445M85.804 12.871h5.147v-2.086h-5.147zM91.601 16.496h8.634V14.24h-5.95V4.289h-2.684zM100.8 16.496h2.428V4.29H100.8zM103.774 12.085c0 2.804 1.796 4.65 4.565 4.65 2.787 0 4.582-1.846 4.582-4.65 0-2.82-1.795-4.667-4.582-4.667-2.77 0-4.565 1.846-4.565 4.667m2.428 0c0-1.419.496-2.838 2.137-2.838 1.659 0 2.155 1.419 2.155 2.838 0 1.402-.496 2.821-2.155 2.821-1.641 0-2.137-1.419-2.137-2.82"/><path fill="#000" d="M121.454 7.657h-2.513l-1.932 6.053h-.034l-2-6.053h-2.6l3.113 8.292c.273.701 0 1.573-.838 1.659-.479.017-.958-.052-1.42-.086v2c.497.052.992.086 1.488.086 1.675 0 2.514-.581 3.043-2zM127.489 16.496h2.308V4.29h-2.428v4.445h-.034.017c-.564-.872-1.59-1.316-2.633-1.316-2.599 0-3.916 2.205-3.916 4.582 0 2.445 1.3 4.736 3.967 4.736 1.129 0 2.12-.41 2.684-1.368h.035zm-.035-4.445c0 1.453-.478 2.855-2.085 2.855-1.505 0-2.138-1.453-2.138-2.838 0-1.453.548-2.821 2.138-2.821 1.573 0 2.085 1.368 2.085 2.804"/></g></svg>
